images/logo-bank-sber.svg

<svg width="95" height="26" viewBox="0 0 95 26" fill="none" xmlns="http://www.w3.org/2000/svg">
<path fill-rule="evenodd" clip-rule="evenodd" d="M57.2313 18.2135H54.1099V13.9025H57.9294C59.4817 13.9025 60.925 14.58 60.6965 16.3726C60.4764 18.0979 58.62 18.2135 57.2312 18.2135H57.2313ZM12.9373 12.6237C12.4692 12.3088 11.8858 11.9765 11.4092 11.6627L9.87105 10.6912C9.33188 10.3714 8.72069 9.94886 8.17965 9.62618C8.11926 9.59019 8.07191 9.54659 8.00885 9.52965V13.2837L8.61678 13.663C8.71999 13.7327 8.81179 13.791 8.91895 13.8546L10.1563 14.633C10.269 14.7023 10.3628 14.7659 10.472 14.8316L11.6964 15.6025C12.0034 15.7915 12.6711 16.2362 12.9373 16.3776L13.3039 16.1064C13.9521 15.6174 14.8577 14.9356 15.504 14.4797L18.0798 12.5704C18.2085 12.4733 18.3189 12.3956 18.4465 12.2993C18.5778 12.2001 18.6937 12.1183 18.8249 12.0193L20.2917 10.935C20.4158 10.8413 20.5369 10.7557 20.6584 10.6639L22.8673 9.02547C22.9988 8.92589 23.1197 8.84081 23.2457 8.74556C23.3672 8.6537 23.4883 8.56803 23.6124 8.47442C23.7375 8.37999 23.8521 8.29923 23.9792 8.20328L24.7243 7.65223L24.567 7.29449C24.5062 7.17353 24.4595 7.06659 24.3917 6.95486L24.0144 6.28192C23.9292 6.13899 23.2892 5.1457 23.1635 5.05314L22.2015 5.75776C22.0895 5.84038 21.995 5.90758 21.8816 5.99325C21.6626 6.15851 21.461 6.29945 21.242 6.46459C21.1285 6.55026 21.0341 6.61746 20.922 6.70009L18.0503 8.82784C17.6271 9.14631 17.1998 9.45298 16.7741 9.77367L16.1345 10.245C15.9175 10.409 15.7157 10.5568 15.4983 10.7197L13.9021 11.9011C13.7907 11.9796 13.6957 12.0512 13.5826 12.1369L12.9372 12.6231L12.9373 12.6237ZM4.41521 7.8806C4.49095 7.76303 4.55704 7.64417 4.63686 7.52461C4.7183 7.40271 4.7937 7.30197 4.87003 7.17809L5.64726 6.23412L6.09405 5.7705C6.19143 5.68448 6.30383 5.60033 6.38655 5.49655L6.99961 5.00932C7.29747 4.78457 7.67201 4.5305 8.00245 4.34584L8.73465 3.96741C8.8688 3.90267 8.98259 3.85405 9.1171 3.79468C10.2001 3.31691 11.5891 3.0321 12.7995 3.0321C13.719 3.0321 14.3969 3.08901 15.2865 3.31259C16.5173 3.62194 17.5256 4.0941 18.5228 4.76471C18.6472 4.7314 20.7333 3.13424 21.0692 2.90833C21.0159 2.82827 20.788 2.67073 20.6966 2.60189C20.2265 2.24754 19.5372 1.78543 19.0157 1.52633C18.6825 1.36084 18.4537 1.22703 18.0741 1.0696C17.5028 0.832822 17.2017 0.708936 16.5492 0.518086C16.0064 0.359376 15.4213 0.22556 14.846 0.145504C14.1307 0.0460465 13.662 0 12.902 0C11.6489 0 10.1459 0.226611 9.02285 0.605973C8.04084 0.937653 7.78592 1.05289 6.92061 1.48508L5.97188 2.03787C5.81946 2.14072 5.67972 2.23118 5.52811 2.33473L4.27163 3.33304C4.09652 3.49783 3.94119 3.64263 3.77364 3.81092C3.69732 3.88759 3.60621 3.96695 3.54106 4.05168C3.45891 4.1585 3.38073 4.21237 3.30254 4.31113L3.0013 4.66466C2.80048 4.91453 2.51972 5.23815 2.36183 5.50356C2.26386 5.63259 2.18998 5.74665 2.09899 5.88293C2.00708 6.02048 1.93529 6.15266 1.84384 6.29139C1.77193 6.39342 1.70689 6.52805 1.64208 6.64095C1.60578 6.70406 1.57506 6.75759 1.54062 6.82783L1.2459 7.39804C1.21042 7.47225 1.19401 7.52402 1.15701 7.59765C1.12048 7.67035 1.10244 7.73206 1.06812 7.79715C0.928613 8.0621 0.669731 8.83707 0.562222 9.16606C0.536275 9.24542 0.526153 9.31963 0.493109 9.38192C0.454131 9.56389 0.396886 9.74925 0.353254 9.92572C0.305317 10.1197 0.267154 10.3107 0.226082 10.5029C0.224337 10.5784 0.199088 10.6607 0.187686 10.7289C0.174189 10.8091 0.160692 10.8932 0.149639 10.9589C0.1024 11.2411 0.000126711 12.1754 0.000126711 12.437L1.06003e-05 13.4902C-0.00103656 13.7799 0.0757555 14.5289 0.11706 14.8164C0.132884 14.9263 0.155456 15.0388 0.164299 15.1348L0.382924 16.1996C0.434002 16.3737 0.465883 16.5297 0.52115 16.7001L0.677759 17.2L0.918258 17.8483C1.41392 19.092 2.22233 20.4721 3.09613 21.4568C3.17013 21.5402 3.23854 21.6119 3.31126 21.6945C3.35268 21.7416 3.35711 21.7598 3.40341 21.8082C3.44483 21.8515 3.4745 21.8788 3.51674 21.9212L4.90807 23.2052C4.99406 23.2727 5.06957 23.3321 5.16323 23.4027C5.5558 23.6982 6.33047 24.2161 6.79006 24.45L7.23522 24.6835C7.29666 24.7121 7.33854 24.7233 7.39276 24.7521C7.62791 24.877 8.00826 25.0276 8.26691 25.1322C8.42376 25.1957 8.55512 25.2411 8.71976 25.2962C9.42426 25.5321 9.98927 25.6894 10.7311 25.8129C10.9126 25.8432 11.0941 25.8865 11.2879 25.8865C11.341 25.9147 11.4401 25.9181 11.5031 25.9244L12.1892 25.9778C12.4645 26.0195 12.8895 25.9896 13.1872 25.9896C14.0866 25.9896 14.9726 25.869 15.7105 25.7008C16.5795 25.4919 17.0171 25.3638 17.8098 25.0468L18.0904 24.9171L19.6921 24.0909C19.7784 24.0389 19.8593 24.0077 19.8985 23.9396C19.9692 23.9344 19.987 23.9024 20.0792 23.8405L20.6231 23.4585C21.2999 22.9482 21.6152 22.6663 22.2344 22.0449C22.345 21.934 22.4214 21.8364 22.5324 21.7255L22.8092 21.4052C22.9093 21.2925 22.9908 21.1819 23.0862 21.0647C23.3272 20.7686 23.7621 20.1482 23.958 19.8159C24.8288 18.3394 25.4149 16.8978 25.6953 15.1668C25.8068 14.4792 25.8741 13.7246 25.8742 12.9125C25.8742 12.3716 25.8025 11.4855 25.71 10.9322C25.6967 10.8526 25.6707 10.7451 25.6688 10.6641C25.5757 10.6891 24.336 11.6322 24.2636 11.6866L22.8554 12.7268C22.8554 13.9205 22.7974 14.5419 22.5066 15.6559C22.4184 15.9937 22.2197 16.5553 22.0809 16.8784C21.8863 17.3314 21.6411 17.8215 21.381 18.238C21.3518 18.2847 21.3283 18.3154 21.2988 18.3617C21.1253 18.6333 20.9043 18.958 20.7023 19.2066C20.6387 19.2849 20.5742 19.3528 20.5146 19.4304C20.4779 19.4779 20.4572 19.493 20.418 19.5396C20.2307 19.7623 19.9149 20.1075 19.7186 20.2811L19.2779 20.6633C19.1264 20.796 18.9823 20.9036 18.8188 21.0274C18.7366 21.0898 18.6631 21.1438 18.5803 21.2002C18.5 21.2551 18.4172 21.3145 18.3377 21.3609C18.0975 21.5452 17.5795 21.8118 17.2973 21.9535L16.9194 22.1323C16.6574 22.2778 15.9197 22.5175 15.6091 22.6092C15.5018 22.6409 15.2258 22.7211 15.1137 22.7304C15.0567 22.7579 14.7337 22.8144 14.6564 22.8279C14.4789 22.859 14.3388 22.8771 14.1548 22.9017C13.8419 22.9435 13.4446 22.9779 13.0842 22.9779C12.7804 22.9779 12.521 22.9713 12.2387 22.9573C12.1236 22.9516 11.965 22.9268 11.848 22.9166C11.703 22.904 11.5853 22.8748 11.4338 22.8748L11.2531 22.8334C10.846 22.7676 10.3187 22.6387 9.94622 22.5166C9.58355 22.3976 8.96898 22.1684 8.624 21.9878C7.61011 21.4407 7.4955 21.3812 6.62368 20.6974C6.57784 20.6615 6.57481 20.6571 6.53455 20.622C6.4943 20.5867 6.48254 20.5842 6.44287 20.549C6.40959 20.5195 6.3933 20.4968 6.36084 20.4664C6.31884 20.4271 6.31058 20.4284 6.26904 20.3935L6.02156 20.147C5.83481 19.9819 5.79281 19.9197 5.61061 19.7348C5.54952 19.6729 5.5209 19.6255 5.45679 19.5594L4.87538 18.8232C4.82093 18.7509 4.78846 18.7042 4.73925 18.6299C4.60405 18.4256 4.3397 18.0237 4.23661 17.8146L4.01089 17.3814C3.9206 17.2003 3.65078 16.6083 3.61389 16.4357C3.53989 16.2968 3.40516 15.8229 3.35559 15.6468C3.31487 15.5023 3.28904 15.3811 3.25239 15.2348C3.22167 15.1122 3.17083 14.9018 3.1621 14.7818C3.1009 14.5629 3.08368 14.2653 3.05331 14.032C3.04482 13.9668 3.04237 13.8522 3.03016 13.7677C3.00002 13.5581 2.99781 12.8591 2.99781 12.6434C3.04086 12.1299 3.06995 11.5654 3.18258 11.1213C3.18502 10.9995 3.34687 10.3428 3.38794 10.2473C3.44297 10.032 3.52256 9.78688 3.60191 9.57932C3.64228 9.4739 3.67824 9.36918 3.72338 9.26821C3.77353 9.15625 3.80657 9.05258 3.86033 8.95254C3.88115 8.90801 3.89011 8.87225 3.91478 8.82094L4.41474 7.88037L4.41521 7.8806ZM33.6366 12.6648C33.6366 13.9462 33.7127 14.5734 34.1012 15.746C34.2493 16.193 34.4979 16.7331 34.7365 17.1292C35.205 17.9068 35.4798 18.2154 36.0751 18.8167C36.1249 18.867 36.1501 18.8944 36.2034 18.9353L36.6169 19.2831C36.7142 19.3561 36.8005 19.423 36.8984 19.4955C37.375 19.8486 37.9673 20.1519 38.5324 20.391C39.4985 20.8 40.8365 21.0392 41.9327 21.0392L42.9244 20.9835C43.973 20.8451 44.8432 20.6722 45.7932 20.1935L46.4699 19.8213C46.8054 19.6183 47.7015 18.936 47.9083 18.6259L45.7316 17.017L44.7806 17.5263C44.3407 17.7472 43.7087 17.9642 43.2236 18.0457C41.5534 18.3259 39.9987 18.0498 38.6854 16.9991L38.3334 16.6927C38.2674 16.6295 38.2477 16.589 38.1904 16.5268C37.4662 15.7416 36.9943 14.7116 36.9021 13.6336C36.8126 12.5859 36.8982 11.8575 37.277 10.8967C37.397 10.5926 37.5559 10.3177 37.723 10.0659C37.8116 9.93215 37.8934 9.82323 37.9926 9.69724C38.8822 8.56675 40.4325 7.85874 41.871 7.85874C42.3674 7.85874 42.6288 7.84753 43.1353 7.95002C43.8028 8.08501 44.4144 8.33476 44.972 8.70407C45.0233 8.73808 45.0677 8.77536 45.1155 8.8075C45.2387 8.77863 46.6935 7.65118 46.9391 7.48335C47.0474 7.40926 47.1391 7.33481 47.2452 7.25452C47.3023 7.21128 47.3439 7.18604 47.4009 7.14279C47.4638 7.09499 47.4914 7.06975 47.5592 7.03363C47.5027 6.94879 47.2916 6.77862 47.1942 6.69892C47.1455 6.65883 47.1086 6.62856 47.0576 6.58859C46.7851 6.37484 46.5044 6.19532 46.2049 6.02189C45.9334 5.8647 45.5404 5.68238 45.2445 5.56317C44.2671 5.16955 43.1752 4.97098 41.8709 4.97098C39.9378 4.97098 38.0941 5.54973 36.6139 6.66234C36.2297 6.95112 36.2311 6.98852 35.9412 7.24482L35.5715 7.61612C35.0314 8.20246 34.5392 9.01226 34.2345 9.75906C33.8742 10.6424 33.6364 11.6739 33.6364 12.6647L33.6366 12.6648ZM67.0471 20.833H78.8342V18.2135H70.4354V14.2325H77.602V11.5923H70.4354V7.79704H75.3021C75.3474 7.79704 75.4835 7.67993 75.5248 7.64943L78.6228 5.35701C78.6862 5.30897 78.8073 5.25171 78.8341 5.17738H67.047V20.8329L67.0471 20.833ZM88.3213 13.7787H85.3231V7.79704H88.2596C89.5478 7.79704 90.5552 8.14332 91.1759 9.0756C91.411 9.42879 91.6068 10.0764 91.6068 10.5816C91.6068 11.1816 91.5948 11.6833 91.3263 12.2181C91.1475 12.5744 90.9928 12.8141 90.6654 13.0806C90.1238 13.522 89.2991 13.7787 88.3212 13.7787H88.3213ZM81.9349 20.833H85.3231V16.3983H88.5471C89.6119 16.3983 90.7921 16.1795 91.6658 15.818C91.9571 15.6975 92.3803 15.4857 92.6421 15.3136C93.4068 14.8105 94.0016 14.2073 94.427 13.3524C95.2702 11.658 95.186 9.28796 94.1532 7.73509C93.7668 7.15425 93.2391 6.62389 92.6454 6.25867L92.1751 5.98834C91.8703 5.83536 91.4331 5.65129 91.1052 5.55732C90.2504 5.31225 89.4128 5.17738 88.4854 5.17738H81.9346V20.8329L81.9349 20.833ZM50.7217 20.833H57.6214C58.2664 20.833 58.931 20.7889 59.5488 20.6858C59.7518 20.6519 59.9388 20.6074 60.1286 20.5668C61.4565 20.2827 62.7323 19.4833 63.3983 18.282C64.0543 17.0987 64.1129 15.4032 63.6405 14.0857C63.5165 13.7397 63.2818 13.34 63.0491 13.0503C62.8533 12.8066 62.631 12.5873 62.3828 12.3995C61.7926 11.953 61.1333 11.6893 60.3487 11.4931C59.6731 11.3241 58.8067 11.2623 57.9705 11.2623H54.1099V7.79704H60.5785C60.693 7.79704 61.3827 7.24026 61.4902 7.16582L62.3769 6.50924C62.4529 6.45174 64.1019 5.25217 64.1517 5.17738H50.7218V20.8329L50.7217 20.833Z" fill="black"/>
</svg>

<svg width="95" height="26" fill="none" xmlns="http://www.w3.org/2000/svg"><path fill-rule="evenodd" clip-rule="evenodd" d="M57.231 18.213H54.11v-4.31h3.82c1.552 0 2.995.677 2.767 2.47-.22 1.725-2.077 1.84-3.466 1.84zm-44.294-5.59c-.468-.314-1.051-.646-1.528-.96l-1.538-.972c-.54-.32-1.15-.742-1.691-1.065-.06-.036-.108-.08-.171-.096v3.754l.608.379c.103.07.195.128.302.192l1.237.778c.113.07.207.133.316.199l1.224.77c.307.19.975.634 1.241.776l.367-.272a97.921 97.921 0 012.2-1.626l2.576-1.91c.129-.097.239-.174.367-.27.13-.1.247-.182.378-.28l1.467-1.085c.124-.094.245-.18.366-.271l2.21-1.639c.13-.1.252-.184.378-.28.121-.091.242-.177.366-.27.126-.095.24-.176.367-.272l.745-.55-.157-.359c-.06-.12-.108-.227-.175-.34l-.378-.672c-.085-.143-.725-1.136-.85-1.229l-.963.705c-.111.082-.206.15-.32.235-.218.166-.42.306-.639.472-.114.085-.208.152-.32.235L18.05 8.828c-.423.318-.85.625-1.276.946l-.64.471c-.216.164-.418.312-.636.475l-1.596 1.18c-.111.079-.206.15-.32.236l-.645.486zM4.415 7.882c.076-.118.142-.237.222-.356.081-.122.157-.223.233-.347l.777-.944.447-.463c.097-.087.21-.17.293-.274L7 5.009a9.384 9.384 0 011.002-.663l.733-.379c.134-.064.248-.113.382-.172 1.083-.478 2.472-.763 3.682-.763.92 0 1.598.057 2.488.28 1.23.31 2.239.782 3.236 1.453.124-.034 2.21-1.63 2.546-1.857-.053-.08-.281-.237-.372-.306-.47-.354-1.16-.817-1.681-1.076-.333-.165-.562-.299-.942-.456a12.324 12.324 0 00-1.525-.552 12.109 12.109 0 00-1.703-.372C14.131.046 13.662 0 12.902 0c-1.253 0-2.756.227-3.88.606-.981.332-1.236.447-2.101.88l-.95.552c-.152.103-.291.193-.443.297l-1.256.998c-.175.165-.33.31-.498.478-.077.077-.168.156-.233.24-.082.107-.16.161-.238.26L3 4.665c-.2.25-.481.573-.64.839-.097.129-.171.243-.262.379-.092.137-.164.27-.255.408-.072.102-.137.237-.202.35a2.993 2.993 0 00-.101.187l-.295.57c-.036.074-.052.126-.089.2-.037.072-.055.134-.089.2-.14.264-.398 1.04-.506 1.368-.026.08-.036.154-.069.216-.039.182-.096.367-.14.544-.048.194-.086.385-.127.577-.002.075-.027.158-.038.226l-.038.23C.102 11.24 0 12.175 0 12.437v1.053c-.001.29.076 1.039.117 1.326.016.11.038.223.047.319L.383 16.2c.051.174.083.33.138.5l.157.5.24.648c.496 1.244 1.304 2.624 2.178 3.609.074.083.143.155.215.238.042.047.046.065.092.113.042.044.071.07.114.113l1.391 1.284.255.198c.393.295 1.167.813 1.627 1.047l.445.233c.062.03.104.04.158.07.235.124.615.275.874.38.157.063.288.108.453.163.704.236 1.27.393 2.011.517.182.03.363.074.557.074.053.028.152.031.215.037l.686.054c.275.041.7.012.998.012.9 0 1.786-.121 2.524-.29.868-.208 1.306-.336 2.099-.653l.28-.13 1.602-.826c.086-.052.167-.083.206-.151.071-.006.089-.038.181-.1l.544-.381c.677-.51.992-.793 1.611-1.414.111-.111.187-.209.298-.32l.277-.32c.1-.113.182-.223.277-.34.241-.296.676-.917.872-1.25.87-1.476 1.457-2.917 1.737-4.648.112-.688.18-1.442.18-2.255 0-.54-.073-1.427-.165-1.98-.013-.08-.04-.187-.041-.268-.093.025-1.333.968-1.405 1.023l-1.409 1.04c0 1.194-.058 1.815-.348 2.929-.089.338-.287.9-.426 1.222-.195.453-.44.944-.7 1.36-.03.047-.053.077-.082.124a9.763 9.763 0 01-.597.845c-.063.078-.128.146-.187.223-.037.048-.058.063-.097.11a8.61 8.61 0 01-.7.741l-.44.382c-.152.133-.296.24-.46.364a5.55 5.55 0 01-.238.173c-.08.055-.163.114-.242.16-.24.185-.759.452-1.04.593l-.379.18c-.262.145-1 .384-1.31.476a3.79 3.79 0 01-.495.121c-.057.028-.38.084-.458.098-.177.031-.317.05-.501.074a8.52 8.52 0 01-1.07.076c-.305 0-.564-.007-.846-.02-.115-.006-.274-.031-.391-.041-.145-.013-.263-.042-.414-.042l-.18-.042a9.598 9.598 0 01-1.308-.316c-.362-.12-.977-.349-1.322-.53-1.014-.546-1.129-.606-2-1.29-.046-.035-.05-.04-.09-.075-.04-.035-.051-.038-.091-.073-.033-.03-.05-.052-.082-.083-.042-.039-.05-.038-.092-.073l-.247-.246c-.187-.165-.23-.227-.411-.412-.061-.062-.09-.11-.154-.176l-.582-.736a3.429 3.429 0 01-.136-.193c-.135-.204-.4-.606-.502-.815l-.226-.434c-.09-.18-.36-.773-.397-.945-.074-.14-.209-.613-.258-.79-.041-.144-.067-.265-.104-.411a3.381 3.381 0 01-.09-.453c-.061-.22-.078-.517-.109-.75-.008-.065-.01-.18-.023-.264-.03-.21-.032-.909-.032-1.125.043-.513.072-1.078.185-1.522.002-.122.164-.778.205-.874a6.43 6.43 0 01.214-.668c.04-.105.076-.21.121-.31.05-.113.084-.216.137-.316.021-.045.03-.08.055-.132l.5-.94zm29.222 4.784c0 1.281.076 1.908.464 3.081.148.447.397.987.636 1.383.468.778.743 1.086 1.338 1.688.05.05.075.077.128.118l.414.348.281.212c.477.354 1.07.657 1.634.896.967.409 2.305.648 3.4.648l.992-.056c1.049-.138 1.92-.31 2.87-.79l.676-.372c.335-.203 1.232-.885 1.438-1.195l-2.176-1.609-.951.51c-.44.22-1.072.437-1.557.519-1.67.28-3.225.004-4.539-1.047l-.352-.306c-.066-.064-.085-.104-.143-.166a4.931 4.931 0 01-1.288-2.893c-.09-1.048-.004-1.777.375-2.737a5.126 5.126 0 01.716-1.2c.89-1.13 2.44-1.838 3.878-1.838.496 0 .758-.011 1.264.091a5.13 5.13 0 011.837.754c.051.034.096.071.143.103.124-.028 1.578-1.156 1.824-1.324.108-.074.2-.148.306-.228.057-.044.099-.069.156-.112.063-.048.09-.073.158-.11-.056-.084-.267-.254-.365-.334a7.21 7.21 0 00-.99-.677 8.44 8.44 0 00-.96-.459c-.977-.393-2.069-.592-3.373-.592-1.933 0-3.777.579-5.257 1.691-.384.29-.383.327-.673.583l-.37.371c-.54.586-1.032 1.396-1.337 2.143-.36.883-.598 1.915-.598 2.906zm33.41 8.168h11.787v-2.62h-8.399v-3.98h7.167v-2.64h-7.167V7.796h4.867c.045 0 .181-.117.223-.148l3.098-2.292c.063-.048.184-.105.211-.18H67.047v15.656zm21.274-7.054h-2.998V7.797h2.937c1.288 0 2.295.346 2.916 1.279.235.353.43 1 .43 1.506 0 .6-.011 1.101-.28 1.636-.178.356-.333.596-.66.863-.542.441-1.367.698-2.345.698zm-6.386 7.054h3.388v-4.435h3.224c1.065 0 2.245-.218 3.119-.58a6.79 6.79 0 00.976-.504c.765-.504 1.36-1.107 1.785-1.962.843-1.694.759-4.064-.274-5.617a5.02 5.02 0 00-1.508-1.476l-.47-.27a7.01 7.01 0 00-1.07-.432 9.281 9.281 0 00-2.62-.38h-6.55v15.656zm-31.213 0h6.9c.644 0 1.309-.044 1.927-.147.203-.034.39-.079.58-.12 1.328-.283 2.603-1.083 3.27-2.284.655-1.183.714-2.879.242-4.196a3.898 3.898 0 00-.592-1.036 3.79 3.79 0 00-.666-.65c-.59-.447-1.25-.71-2.034-.907-.676-.169-1.542-.23-2.378-.23H54.11V7.796h6.468c.115 0 .805-.557.912-.631l.887-.657c.076-.057 1.725-1.257 1.775-1.332h-13.43v15.656z" fill="#000"/></svg>
